X:1
T:O bone Jesu - de Latre
T:#
%%score [ 1 2 3 4 ]
L:1/8
Q:1/4=108
M:2/2
K:C
V:1 treble nm="Soprano" snm="S"
V:2 treble nm="Alto" snm="A"
V:3 treble-8 nm="Tenor" snm="T"
V:4 bass nm="Bass" snm="B"
V:1
"^Joannes de Latre\n(1505-69)""^O bone Jesu" F8 | E4 G4 | F4 E4- | E4 z2 E2- | E2 E2 E2 E2 | %5
w: O|bo- ne|Je- su|* O|* dul- cis- si-|
 G4 A4 | G4 z4 | c8 | c4 B4 | A6 A2 | A4 G4 | c4 (_B4- |[M:2/2] B2 A2) (A4 | G4 F2 E2- | %14
w: me Je-|su|O|Je- su|Fi- li|Vir- gi-|nis Ma\-|* * ri\-||
 ED D4 ^C2) | D2 A2 A2 B2 | (c3 B c2) d2- | d2 (c2 A2 c2- | c2) (BA) G2 C2 | F2 G2 A4 | %20
w: |ae, ple- nus mi-|se\- * * ri\-|* cor\- * *|* di\- * a et|ve- ri- ta-|
 F2 F2 D2 E2 | F3 E F2 D2 | E2 E2 A2 (c2- | cB) (A4 ^G2) | A4 z4 | A6 A2 | _B6 B2 | _B2 B4 B2 | %28
w: te, ple- nus mi-|se- ri- cor- di-|a et ve- ri\-|* * ta\- *|te|O mi-|se- ri-|cor- dis- si-|
 c4 _B4 | A4 z2 A2 | _B2 A4 G2 | F4 E4 | z2 A4 A2 | A6 F2 | G2 G2 A4 | F4 E4 | z2 A2 A2 G2 | %37
w: me Je-|su qui|me re- de-|mi- sti|pre- ti-|o- so|san- gui- ne|tu- o,|mi- se- re-|
 c3 B A2 B2 | A4 z4 | z2 F4 E2 | F2 A2 A2 G2 | (c2 A2 _B2 c2- | c_B A4 G2 | A2 GF) E2 A2- | %44
w: re me- i De-|us,|mi- se-|re- re- me- i|De\- * * *||* * * us se\-|
 A2 =B2 c2 A2 | B2 c2 d3 d | d2 c2 B2 (A2- | A2 ^G2) A4 | z2 D2 E2 F2 | G2 E2 F3 G | A4 z4 | z8 | %52
w: * cun- dum ma-|gnam mi- re- ri-|cor- di- am tu\-|* * am,|mi- se- ri-|cor- di- am tu-|am,||
 z2 A2 B2 c2 | d2 B2 c2 c2 | B2 A4 ^G2 | A2 (G4 F2) | E4 z2 D2 | E2 F2 G2 E2 | F2 F3 G A2- | %59
w: se- cun- dum|ma- gnam mi- se-|ri- cor- di-|am tu\- *|am, se-|cun- dum ma- gnam|mi- se- ri- cor\-|
 A2 ^G2 A2 A2 | F2[Q:1/4=107] F2[Q:1/4=105] G3[Q:1/4=103] G | %61
w: * di- am tu-|am, mi- se- ri-|
[Q:1/4=102] G2[Q:1/4=101] F2[Q:1/4=98] A4 |[Q:1/4=96] _B4[Q:1/4=93] A4- |[Q:1/4=92] A8 |] %64
w: cor- di- am|tu- am.||
V:2
 A8 | c4 B4 | (A6 ^G^F) | ^G4 A4- | A2 A2 A2 A2 | B2 B2 c4- | c4 z4 | A8 | A4 ^G4 | c6 c2 | %10
w: O|bo- ne|Je * *|su o|* dul- cis- si-|me Je- su||O|Je- su|Fi- li|
 c4 _B4 | A4 F4- |[M:2/2] F2 F2 (F4 | D4) z4 | z8 | F6 F2 | G2 (A3 G A2) | (B2 G2) (A3 G) | %18
w: Vir- gi-|nis Ma\-|* ri- ae|||ple- nus|mi- se\- * *|ri\- * cor\- *|
 F4 E2 A2 | A2 B2 c3 B | c2 (A4 G2) | A6 A2 | G4 F2 (E2- | E2 D2) E4- | E4 z4 | F6 F2 | G6 G2 | %27
w: di- a, ple-|nus mi- se- ri-|cor- di\- *|a et|ve- ri- ta\-|* * te,||O mi-|se- ri-|
 G2 G4 G2 | A4 G4 | F4 z4 | z8 | z2 A2 _B2 (A2- | AG F2) E2 F2- | F2 F2 F4 | E4 (F3 G | %35
w: cor- dis- si-|me Je-|su||qui me re\-|* * * de- mi\-|* sti pre-|ti- o\- *|
 A2) D2 D2 C2 | F2 D2 E4- | E4 z4 | z2 A2 A2 G2 | c2 A2 _B2 B2 | A2 c4 B2 | (A3 G F2 G2) | %42
w: * so san- gui-|ne tu- o,||mi- se- re-|re me- i De-|us, mi- se-|re\- * * *|
 A2 F4 E2 | D4 C4 | z2 D2 E2 F2 | (G2 E2 F3 G) | A4 z4 | z4 z2 A2- | A2 B2 c2 d2 | B2 c2 d3 d | %50
w: re me- i|De- us|se- cun- dum|ma\- * * *|gnam,|se\-|* cun- dum ma-|gnam mi- se- ri-|
 d2 c2 A2 D2 | E2 F2 G2 E2 | F2 (DE FG A2- | A2 ^G2 A3 =G | F2 (F4 E2 | D4) E2 A2 | G2 E2 F2 GF | %57
w: cor- di- am, se-|cun- dum ma- gnam|mi- se\- * * * *|* ri- cor- di-|am tu\- *|* am, mi-|se- ri- cor\- * *|
 ED) D4 C2 | (DEFG AB c2- | cB d4 ^c2) | d2 A2 _B3 B | _B2 A2 F2 (A2- | A2 G4 ^FE) | ^F8 |] %64
w: * * di- am|tu\- * * * * * *||am, mi- se- ri-|cor- di- am tu\-||am.|
V:3
 d8 | c4 d4 | d4 B4- | B4 c4- | c2 c2 c2 c2 | d4 (f4- | f2 ed) e4 | z4 e4 | e4 e4 | e6 f2 | f4 d4 | %11
w: O|bo- ne|Je- su|* O|* dul- cis- si-|me Je\-|* * * su|O|Je- su|Fi- li|Vir- gi-|
 c4 d4- |[M:2/2][K:treble-8] d2 c2 c4 | (B3 A/B/ c2 B2- | B2 A4) G2 | A2 d4 d2 | e2 (f3 e) f2 | %17
w: nis Ma\-|* ri- ae,|Ma\- * * * *|* * ri-|ae, ple- nus|mi- se\- * ri-|
 (g2 e2 f2 e2- | e2) d2 e4 | z8 | A4 A2 B2 | c3 B (c2 A2) | B2 c2 d2 G2 | A4 c4 | c4 z4 | d6 d2 | %26
w: cor\- * * *|* di- a,||ple- nus mi-|se- ri- cor- *|di- a et ve-|ri- ta-|te,|O mi-|
 d6 d2 | d2 d4 d2 | f4 d4 | d2 f2 e2 f2- | f2 e2 (d4 | c2 d4 ^c2) | d4 A4- | A2 A2 A4 | c4 c3 _B | %35
w: se- ri-|cor- dis- si-|me Je-|su qui me re\-|* de- mi\-||sti pre\-|* ti- o-|so san- gui-|
 A4 (B2 c2 | A4 B4) | A4 z2 d2 | d2 c2 f2 (d2 | e2 dc) d2 (_B2 | c2 AB cd e2) | A2 d2 d2 e2 | %42
w: ne tu\- *||o, mi-|se- re- re me\-|* * * i De\-||us, mi- se- re-|
 d2 c2 _B2 (c2- | c2 _B2 c2 A2 | d2 =B2) A4 | z4 z2 d2 | e2 f2 g2 e2 | f2 d2 e2 f2 | %48
w: re me- i De\-||* * us|se-|cun- dum ma- gnam|mi- se- ri- cor-|
 f2 g2 (a3 g/f/) | e4 z2 d2- | d2 e2 f2 g2 | a2 a2 b2 a2- | ag f4 e2 | f2 (d2 e4 | d3 c) B4 | %55
w: di am tu\- * *|am, se\-|* cun- dum ma-|gnam mi- se- ri\-|* * cor- di-|am tu\- *|* * am,|
 z4 z2 A2 | B2 c2 d2 B2- | B2 A2 B2 G2 | A6 A2 | c2 (d2 e4) | d8- | d8 | d8 | d8 |] %64
w: se-|cun- dum ma- gnam|* mi- se- ri-|cor- di-|am tu\- *|am.||||
V:4
 D,8 | A,4 G,4 | D,4 E,4- | E,4 A,4- | A,2 A,2 A,2 A,2 | G,4 F,4 | C4 z4 | A,8 | A,4 E,4 | %9
w: O|bo- ne|Je- su|* O|* dul- cis- si-|me Je-|su|O|Je- su|
 A,6 F,2 | F,4 G,4 | A,4 _B,4- |[M:2/2] B,2 F,2 F,4 | (G,3 F,/G,/ A,2 G,2- | G,2 F,2) E,4 | D,8 | %16
w: Fi- li|Vir- gi-|nis Ma\-|* ri- ae,|Ma\- * * * *|* * ri-|ae|
 z8 | z4 A,4 | A,2 B,2 C2 A,2 | D2 B,2 A,4 | z2 D,2 D,2 G,2 | F,3 G, (A,2 F,2) | E,2 E,2 D,2 C,2 | %23
w: |ple-|nus mi- se- ri-|cor- di- a,|ple- nus mi-|se- ri- cor\- *|di- a et ve-|
 F,4 E,4 | A,4 z4 | D,6 D,2 | G,6 G,2 | G,2 G,4 G,2 | F,4 G,4 | D,2 D2 A,2 D2- | D2 C2 _B,4 | %31
w: ri- ta-|te,|O mi-|se- ri-|cor- dis- si-|me Je-|su qui me re\-|* de- mi-|
 A,2 F,2 G,2 A,2 | D,4 z2 D,2- | D,2 D,2 D,4 | C,4 F,4- | F,2 F,2 (G,2 A,2) | F,4 E,4 | %37
w: sti, re- de- mi-|sti pre\-|* ti- o-|so san\-|* gui- ne *|tu- o,|
 z2 A,2 A,2 G,2 | (A,3 G,) F,2 _B,2 | (A,4 G,4) | F,4 z4 | z2 D,2 D,2 C,2 | F,2 F,2 D,2 (E,2 | %43
w: mi- se- re-|re * me- i|De\- *|us,|mi- se- re-|re me- i De\-|
 F,2 G,2) A,4 | z8 | z8 | A,4 B,2 C2 | D2 B,2 C2 (D2- | DC) B,2 A,2 D,2 | G,2 A,2 D,4 | %50
w: * * us,|||se- cun- dum|ma- gnam mi- se\-|* * ri- cor- di-|am tu- am,|
 z2 A,4 B,2 | C2 D2 B,2 C2 | D3 D D2 C2 | B,2 B,2 A,4 | z2 D,4 E,2 | F,2 G,2 E,2 F,2 | %56
w: se- cun-|dum ma- gnam mi-|se- ri- cor- di-|am tu- am|se- cun-|dum ma- gnam mi-|
 G,2 A,2 D,2 G,2- | G,2 F,2 E,4 | D,2 D,2 F,3 G, | A,2 B,2 A,2 A,2 | D,2 D,2 G,3 G, | G,2 D,2 F,4 | %62
w: se- ri- cor- di\-|* am tu-|am, mi- se- ri-|cor- di- am tu-|am, mi- se- ri-|cor- di- am|
 G,4 D,4- | D,8 |] %64
w: tu- am.||

